#TITLE	"キラキラ星のサンプル"

1 T120 @L l4
2 T120 @L l4
3 T120 @L l4

1 o4 c c g g a a g2 f f e e d d c2 g g f f e e d2 g g f f e e d2 c c g g a a g2 f f e e d d c2
2 o3 e e d d f f d2 d d c c b b c2 d d c c b b c2 d d c c b b c2 e e d d f f d2 d d c c b b c2
3 o2 c c c c g g g2 a a a a d d d2 g g g g d d d2 g g g g d d d2 c c c c g g g2 a a a a d d d2

